**kern	**kern	**dynam
*part1	*part1	*part1
*staff2	*staff1	*
*I"Piano	*	*
*clefF4	*clefG2	*
*k[f#c#g#]	*k[f#c#g#]	*
=1	=1	=1
2E 2A 2c#	2e 2a 2ee	.
=	=	=
2EE 2E	2d 2e 2g#	.
=	=	=
*^	*	*
2AA	(4FFn 4Fn	2A 2d 2a	>
.	[4DD [4D	.	.
*v	*v	*	*
=	=	=
4DD] 4D]	2A 2d 2fn	.
4BBB) 4BB	.	.
=	=	=
!	!	!LO:DY:a
2EE 2E	2A 2c# 2e	] pp
=	=	=
2EE 2E	2G# 2d 2e	.
*	*clefF4	*
=	=	=
*	*^	*
2EE 2C#	(4e	2E 2A	.
.	[4c#	.	.
=	=	=	=
2EE 2D	4c#]	2E 2G#	>
.	4B)	.	.
=	=	=	=
2EE 2AA	(4A	2C#	.
.	[4E	.	.
=	=	=	=
2EE 2GG#	4E]	2D	.
.	4E)	.	]
=	=	=	=
.	(8qqD#X;/L	.	pp
.	8qqE;/	.	.
.	8qqF#;/J	.	.
2AAA; 2AA	2E;)	2C#	.
*	*v	*v	*
==	==	==
*-	*-	*-
!!!system-decoration: {(s1,s2)}
